X:1
T:Happy Words of Cheer
T:Happy Words of Cheer
T:Charles H. Maskell
T:Eliza Edmunds Hewitt, 1915
T:Public Domain Courtesy of the Cyber Hymnal™
T:Public Domain Courtesy of the Cyber Hymnal™
C:Charles H. Maskell
Z:Public Domain
Z:Courtesy of the Cyber Hymnal™
%%score ( 1 2 ) ( 3 4 )
L:1/8
Q:1/4=95
M:4/4
K:Eb
V:1 treble 
V:2 treble 
V:3 bass 
V:4 bass 
V:1
 [EG]>[FA] | [GB]>[^F=A] [GB]4 [EG]>[=F_A] | [GB]>[^F=A] [GB]4 [GB]>[Ge] | %3
w: 1.~On that|ho- ly night when the|an- gels bright Sang in-|
w: 2.~As the|shep- herds sped to the|man- ger bed, There to|
w: 3.~When we|seek our king, trea- sure|let us bring, Will- ing|
 [Ad]>[Ac] [FB]4 [FA]>[Ac] | [GB]>[^F=A] [GB]4 [EG]>[=F_A] | [GB]>[^F=A] [GB]4 [EG]>[=F_A] | %6
w: car- nate love in the|sky a- bove, Low- ly|shep- herds heard that im-|
w: see the Child pure and|un- de- filed, Haste to|Him to- day while the|
w: gifts of love to the|Lord a- bove; And a-|gain we sing, while the|
 [GB]>[^F=A] [GB]4 [GB]>[_Gc] | [Fd]>[Fc] [Fd]2 [Ge]>[Fd] [Ec]2 |"^riten." B6 |: %9
w: mor- tal word, Joy to|all the world, won- der- ful|word!|
w: an- gels say, Joy to|all the world, won- der- ful|day!|
w: e- choes ring, Joy to|all the world, Je- sus is|king.|
"^Refrain" [GB]>[Ge] | [Ad]2 [Ad]2 [Ad]2 [FA]>[Ac] | ([GB]4 [EG]2) [EG]>[GB] | %12
w: Hap- py|words of cheer, speed them|on! * An- gel-|
w: Mag- ni-|fy our king, Sav- ior|King; * Go and|
w: |||
 ([FA]4 [DF]2) [FA]>[Ac] |1 ([GB]4 [EG]2) [GB]>[Ge] | [Ad]2 [Ad]2 [Ad]2 [FA]>[Ac] | %15
w: song * now pro-|long; * Hap- py|words of cheer, speed them|
w: tell, * glad- ly|tell, * ~ ~|~ ~ ~ ~ ~|
w: |||
 ([GB]4 [EG]2) [GB]>[Ge] | [Fd]>[Ec] [DB]2 [C=A]>[DB] [Ec]2 | B6 :|2 %18
w: on! * Lift ex-|ult- ant praise, hope- ful and|strong;|
w: ~ * ~ ~|~ ~ ~ ~ ~ ~|~|
w: |||
 [EG]>[GB] [Ac]>[A=B] [Ac]2 [Bd]>[Bc] [Bd]2 || [ce]4 !fermata![Ac]2 [^Fc]2"^poco" | %20
w: ||
w: His re- deem- ing love, beau- ti- ful|sto- ry, Let|
w: ||
"^riten." [GB]>[FA] [EG]2 [FA]>[EG] [DF]2 | [B,E]6 |] %22
w: ||
w: all the world joy- ful- ly|sing.|
w: ||
V:2
 x2 | x8 | x8 | x8 | x8 | x8 | x8 | x8 | (D2 E2 F2) |: x2 | x8 | x8 | x8 |1 x8 | x8 | x8 | x8 | %17
 (D2 E2 F2) :|2 x10 || x8 | x8 | x6 |] %22
V:3
 z2 | [E,,E,]2 ([E,B,]2 [G,B,E]2) B,,2 | [E,,E,]2 ([E,B,]2 [E,B,]2) [G,B,E]2 | %3
 [F,,F,]2 ([F,B,E]2 [B,,,B,,]2) [F,B,D]2 | [E,,E,]2 [E,B,]2 [G,B,]2 B,,2 | %5
 [E,,E,]2 ([E,B,]2 [G,B,E]2) B,,2 | [E,,E,]2 ([E,B,]2 [G,B,E]2) E,2 | %7
 [F,,F,]2 [F,B,D]2 [F,,F,]2 [F,=A,]2 | (F,2 G,2 A,2) |: z2 | (B,,F,) (B,D) F2 B,,2 | %11
 (E,,B,,E,G,) B,2 E,2 | (B,,F,B,D B,2) B,,2 |1 (E,,B,,E,G, B,2) z2 | (B,,F,) (B,D) F2 B,,2 | %15
 (E,,B,,E,G,) B,2 z2 | [F,,F,]2 [F,B,]2 [F,,F,]2 [F,=A,]2 | (F,2 G,2 A,2) :|2 %18
 z2 [A,,A,]2 [A,C]2 [G,,G,]2 [G,=B,D]2 || ([C,C]2 [CE]2) !fermata![A,E]2 [=A,,=A,]2 | %20
 [B,,B,]4 B,2 A,2 | [E,,E,G,]6 |] %22
V:4
 x2 | x8 | x8 | x8 | x8 | x8 | x8 | x8 | B,,6 |: x2 | x8 | x8 | x8 |1 x8 | x8 | x8 | x8 | B,,6 :|2 %18
 x10 || x8 | x4 B,,4 | x6 |] %22

